X:1
T:The Thorny Desert
T:William Walker, 1835 E minor*     Alto by William Walker, 1867
T:Transcribed from Southern Harmony, 1835, and from Christian Harmony, 1867.
T:Anonymous, before 1805 76. 76. 76. 76.
%%score [ 1 2 3 4 ]
L:1/8
Q:1/4=70
M:6/8
K:G
V:1 treble nm="Tr." snm="Tr."
V:2 treble nm="A." snm="A."
V:3 treble-8 nm="T." snm="T."
V:4 bass nm="B." snm="B."
V:1
"_Dark  and  thor – ny  is    the  de – sert Through which pilgrims make their way;\nYet     be – yond  this vale of   sor –rows    Lies    the    fields  of  end – less   day.""_1.{" B2 B dB G | %1
 B2 B BA B | d2 B G2 G | AG A"_}" B3 :| %4
"_1. Fiends loud howling in the tempest, Make them tremble  as   they  go;    And  the  fie – ry    darts  of  Sa – tan,   Of – ten  bring their  courage  low." d2 B A2 G | %5
 A2 B c d2 | B2 A G2 G | GA B d3 | d2 e d2 d | B2 B BA B | d2 B G2 G | AG A B3 |] %12
V:2
"_2.{""_Oh!  young  soldiers,  are    you  wea – ry   At       the  troubles    of     the  way?\nDoes your strength be–gin    to   fail  you,  And   your  vi – gor    to     de – cay?" G2 G AG B | %1
 G2 G GF G | AG E G2 G | F2 F"_}" [DG]3 :| %4
"_2. Je –sus, Je –sus, will go with you;  He  shall  lead  you   to   his  throne,   He that dyed  his  garments  for    you,   And the wine press trod  a – lone." G2 G F2 G | %5
 A2 G A B2 | B2 c BA B | BA G B3 | B2 c BA G | B2 B GF G | BA B G2 G | F2 F [DG]3 |] %12
V:3
"_3.{""_He  whose  thunder  shakes  cre – a – tion,  He  that  bids  the   pla  –  nets  roll:\nHe   who    rides up  – on     the tem–pest,  And whose scepter sways the whole:" B2 B AG E | %1
 G2 G ED B, | DE G B2 B | AG A"_}" G3 :| %4
"_3. Round him are ten thousand angels, Rea–dy  to     o   –   bey   command;  They are always  hovering round you,   Till  you reach the heavenly land." G2 B d2 e | %5
 d2 B A G2 | d2 c BA B | EF G D3 | d2 c BA B | G2 G ED B, | DE G B2 B | AG A G3 |] %12
V:4
 E,2 E, D,E, G, | E,2 E, E,D, B,, | D,E, G, E,2 E, | D,2 D, [G,,G,]3 :| %4
"_____________________________________________________________\n*Most of the tune is in E minor, though the two staffs end in G Major.\nA folk hymn, a \"camp meeting spiritual song\" (Jackson 1952, No. 250)." G,2 E, D,2 E, | %5
 D,2 D, E, G,2 | G,2 F, E,2 E, | E,F, G, D,3 | G,2 G, G,2 G, | E,2 E, E,D, B,, | D,E, G, E,2 E, | %11
 D,2 D, [G,,G,]3 |] %12

